X:1
T: Over Land and Sea
C:
R:Jig
Q:180
K:Em
M:6/8
L:1/16
|:d2|E2D2E2 F2D2E2|F2D2d2 B2A2F2|B2E2E2 E2F2A2|B2E2E2 E4F2|
E2D2E2 F2D2F2|A2B2c2 d2A2F2|A2D2D2 D2E2D2|B2E2E2 E4:|
|:A2|d2e2f2 e2d2B2|A2F2A2 d4c2|B2e2e2 B2A2F2|B2e2e2 e4A2|
d2e2f2 e2d2B2|d2A2G2 F2G2E2|D2F2A2 d2e2f2|g2e2e2 e4:|
